packages/foundations/assets/icons/functional/images/communication/paper_plane_28.svg

<svg width="28" height="28" viewBox="0 0 28 28" fill="none" xmlns="http://www.w3.org/2000/svg">
<g clip-path="url(#clip0_185_462)">
<path fill-rule="evenodd" clip-rule="evenodd" d="M25.1275 2.87808C25.3534 3.13208 25.4381 3.49899 25.3252 3.83771L17.3632 24.2459C17.109 24.9234 16.4597 25.375 15.7256 25.375C14.9632 25.375 14.3139 24.9234 14.0598 24.2177L11.2646 16.7375L3.78255 13.9431C3.07675 13.6607 2.625 13.0116 2.625 12.2776C2.625 11.5437 3.04856 10.8946 3.75436 10.6122L24.1677 2.68045C24.5065 2.56754 24.8735 2.62399 25.1275 2.87808ZM22.1348 7.11205L12.987 16.2576L15.7256 23.5967L22.1348 7.11205ZM20.8642 5.87006L4.40379 12.2776L11.7164 15.0156L20.8642 5.87006Z" fill="#1A1C1F"/>
</g>
<defs>
<clipPath id="clip0_185_462">
<rect width="28" height="28" fill="white"/>
</clipPath>
</defs>
</svg>

<svg xmlns="http://www.w3.org/2000/svg" width="28" height="28" fill="none"><g clip-path="url(#a)"><path fill="#1A1C1F" fill-rule="evenodd" d="M25.128 2.878c.225.254.31.621.197.96l-7.962 20.408a1.74 1.74 0 0 1-1.637 1.129 1.74 1.74 0 0 1-1.666-1.157l-2.795-7.48-7.482-2.795c-.706-.282-1.158-.931-1.158-1.665s.424-1.383 1.13-1.666L24.167 2.68c.338-.112.706-.056.96.198m-2.993 4.234-9.148 9.146 2.739 7.339zm-1.27-1.242L4.403 12.278l7.312 2.738z" clip-rule="evenodd"/></g><defs><clipPath id="a"><path fill="#fff" d="M0 0h28v28H0z"/></clipPath></defs></svg>
